customWidgets/icons/mail_read_hover.svg

<svg width="32" height="32" viewBox="0 0 32 32" fill="none" xmlns="http://www.w3.org/2000/svg">
<path d="M15.1177 3.13266L14.8237 2.17688L15.1177 3.13266ZM16.8823 3.13266L16.5882 4.08844L16.8823 3.13266ZM28.2941 6.64399L28.5882 5.68822L28.2941 6.64399ZM3.70591 6.64399L3.41183 5.68822L3.70591 6.64399ZM4.61394 7.07185C4.17799 6.73278 3.54972 6.81131 3.21065 7.24726C2.87158 7.68321 2.95011 8.31148 3.38606 8.65055L4.61394 7.07185ZM13 14.8612L12.3861 15.6506C12.5616 15.7871 12.7776 15.8612 13 15.8612V14.8612ZM19 14.8612V15.8612C19.2224 15.8612 19.4384 15.7871 19.6139 15.6506L19 14.8612ZM28.6139 8.65055C29.0499 8.31148 29.1284 7.68321 28.7894 7.24726C28.4503 6.81131 27.822 6.73278 27.3861 7.07185L28.6139 8.65055ZM28 7.59977V22.8612H30V7.59977H28ZM27 23.8612H5V25.8612H27V23.8612ZM4 22.8612V7.59977H2V22.8612H4ZM4 7.59977L15.4118 4.08844L14.8237 2.17688L3.41183 5.68822L4 7.59977ZM16.5882 4.08844L28 7.59977L28.5882 5.68822L17.1763 2.17688L16.5882 4.08844ZM15.4118 4.08844C15.7951 3.97052 16.2049 3.97052 16.5882 4.08844L17.1763 2.17688C16.4098 1.94104 15.5902 1.94104 14.8237 2.17688L15.4118 4.08844ZM5 23.8612C4.44772 23.8612 4 23.4135 4 22.8612H2C2 24.5181 3.34315 25.8612 5 25.8612V23.8612ZM28 22.8612C28 23.4135 27.5523 23.8612 27 23.8612V25.8612C28.6569 25.8612 30 24.5181 30 22.8612H28ZM30 7.59977C30 6.72177 29.4274 5.94643 28.5882 5.68822L28 7.59977H30ZM4 7.59977V7.59977L3.41183 5.68822C2.57264 5.94643 2 6.72177 2 7.59977H4ZM3.38606 8.65055L12.3861 15.6506L13.6139 14.0718L4.61394 7.07185L3.38606 8.65055ZM13 15.8612H19V13.8612H13V15.8612ZM19.6139 15.6506L28.6139 8.65055L27.3861 7.07185L18.3861 14.0718L19.6139 15.6506Z" fill="#146BE2"/>
</svg>

<svg xmlns="http://www.w3.org/2000/svg" width="32" height="32" fill="none" viewBox="0 0 32 32">
  <path fill="#30E584" d="M15.118 3.133l-.294-.956.294.956zm1.764 0l-.294.955.294-.955zm11.412 3.511l.294-.956-.294.956zm-24.588 0l-.294-.956.294.956zm.908.428A1 1 0 103.386 8.65l1.228-1.58zM13 14.862l-.614.789a1 1 0 00.614.21v-1zm6 0v1a1 1 0 00.614-.211L19 14.86zm9.614-6.211a1 1 0 10-1.228-1.58l1.228 1.58zM28 7.6V22.86h2V7.6h-2zM27 23.86H5v2h22v-2zm-23-1V7.6H2V22.86h2zM4 7.6l11.412-3.512-.588-1.911L3.412 5.688 4 7.6zm12.588-3.512L28 7.6l.588-1.912-11.412-3.511-.588 1.911zm-1.176 0a2 2 0 011.176 0l.588-1.911a4 4 0 00-2.352 0l.588 1.911zM5 23.861a1 1 0 01-1-1H2a3 3 0 003 3v-2zm23-1a1 1 0 01-1 1v2a3 3 0 003-3h-2zM30 7.6a2 2 0 00-1.412-1.912L28 7.6h2zm-26 0l-.588-1.912A2 2 0 002 7.6h2zm-.614 1.05l9 7 1.228-1.578-9-7L3.386 8.65zM13 15.862h6v-2h-6v2zm6.614-.21l9-7-1.228-1.58-9 7 1.228 1.58z"/>
</svg>
